src/assets/protocols/narra.svg

<svg width="128" height="128" viewBox="0 0 128 128" fill="none" xmlns="http://www.w3.org/2000/svg">
<circle cx="64" cy="64" r="63" fill="#151A1F" stroke="#FEF5DC" stroke-width="2"/>
<path d="M84.8815 98.6302H64.4877H42.3656C32.6872 98.0269 15.75 90.8476 15.75 75.4029C15.75 56.0971 27.848 44.3327 34.4155 38.9029C40.983 33.4731 52.7354 29.25 64.4877 29.25C76.2401 29.25 86.2642 33.4731 93.8686 38.9029C101.473 44.3327 112.188 53.0806 112.188 75.4029C112.188 93.2608 93.9838 98.3286 84.8815 98.6302Z" fill="#AAA189"/>
<path d="M82.7741 95.1609H64.4344H44.5404C35.8368 94.618 20.6055 88.1565 20.6055 74.2564C20.6055 56.8812 31.485 46.2931 37.391 41.4064C43.297 36.5196 53.8657 32.7188 64.4344 32.7188C75.003 32.7188 84.0175 36.5196 90.856 41.4064C97.6946 46.2931 107.331 54.1663 107.331 74.2564C107.331 90.3284 90.9596 94.8894 82.7741 95.1609Z" fill="#FEF5DC"/>
<path d="M82.0524 93.625H64.4476H45.3508C36.996 93.1087 22.375 86.9647 22.375 73.7473C22.375 57.2255 32.8185 47.1576 38.4879 42.5109C44.1573 37.8641 54.3024 34.25 64.4476 34.25C74.5927 34.25 83.246 37.8641 89.8105 42.5109C96.375 47.1576 105.625 54.644 105.625 73.7473C105.625 89.0299 89.91 93.3669 82.0524 93.625Z" fill="#AAA189"/>
<g opacity="0.8" filter="url(#filter0_f_1313_25340)">
<ellipse cx="63.9663" cy="57.8599" rx="22.5483" ry="8.67242" fill="#FFF6DD"/>
</g>
<path d="M77.1393 62.5H63.9542H52.1718C49.0859 62.5 46 65.0685 46 69.1781C46 74.3151 54.9771 81.25 63.9542 81.25C72.9313 81.25 82.75 75.5993 82.75 69.1781C82.75 64.0411 79.0095 62.5856 77.1393 62.5Z" fill="#FEF5DC"/>
<path d="M75.9678 63.9414H64.0197H53.3427C49.6827 63.9414 47.75 66.1273 47.75 69.6248C47.75 73.9967 55.8849 79.8987 64.0197 79.8987C72.1546 79.8987 81.0521 75.0896 81.0521 69.6248C81.0521 65.253 77.6626 64.0143 75.9678 63.9414Z" fill="#22272F" stroke="white" stroke-width="0.5"/>
<defs>
<filter id="filter0_f_1313_25340" x="29.418" y="37.1875" width="69.0977" height="41.3438" filterUnits="userSpaceOnUse" color-interpolation-filters="sRGB">
<feFlood flood-opacity="0" result="BackgroundImageFix"/>
<feBlend mode="normal" in="SourceGraphic" in2="BackgroundImageFix" result="shape"/>
<feGaussianBlur stdDeviation="6" result="effect1_foregroundBlur_1313_25340"/>
</filter>
</defs>
</svg>

<svg xmlns="http://www.w3.org/2000/svg" fill="none" viewBox="0 0 128 128"><circle cx="64" cy="64" r="63" fill="#151a1f" stroke="#fef5dc" stroke-width="2"/><path fill="#aaa189" d="M84.882 98.63H42.366c-9.679-.603-26.616-7.782-26.616-23.227 0-19.306 12.098-31.07 18.666-36.5s18.32-9.653 30.072-9.653 21.776 4.223 29.38 9.653c7.605 5.43 18.32 14.178 18.32 36.5 0 17.858-18.204 22.926-27.306 23.227"/><path fill="#fef5dc" d="M82.774 95.16H44.54c-8.703-.542-23.934-7.004-23.934-20.904 0-17.375 10.879-27.963 16.785-32.85 5.906-4.886 16.475-8.687 27.043-8.687 10.569 0 19.584 3.8 26.422 8.687s16.475 12.76 16.475 32.85c0 16.072-16.371 20.633-24.557 20.905"/><path fill="#aaa189" d="M82.052 93.625H45.351c-8.355-.516-22.976-6.66-22.976-19.878 0-16.522 10.444-26.59 16.113-31.236 5.67-4.647 15.814-8.261 25.96-8.261 10.145 0 18.798 3.614 25.363 8.26 6.564 4.648 15.814 12.134 15.814 31.237 0 15.283-15.715 19.62-23.573 19.878"/><g filter="url(#a)" opacity=".8"><ellipse cx="63.966" cy="57.86" fill="#fff6dd" rx="22.548" ry="8.672"/></g><path fill="#fef5dc" d="M77.14 62.5H52.171C49.086 62.5 46 65.069 46 69.178c0 5.137 8.977 12.072 17.954 12.072S82.75 75.6 82.75 69.178c0-5.137-3.74-6.592-5.61-6.678"/><path fill="#22272f" stroke="#fff" stroke-width=".5" d="M75.968 63.941H53.343c-3.66 0-5.593 2.186-5.593 5.684 0 4.372 8.135 10.274 16.27 10.274s17.032-4.81 17.032-10.274c0-4.372-3.39-5.61-5.084-5.684Z"/><defs><filter id="a" width="69.098" height="41.344" x="29.418" y="37.188" color-interpolation-filters="sRGB" filterUnits="userSpaceOnUse"><feFlood flood-opacity="0" result="BackgroundImageFix"/><feBlend in="SourceGraphic" in2="BackgroundImageFix" result="shape"/><feGaussianBlur result="effect1_foregroundBlur_1313_25340" stdDeviation="6"/></filter></defs></svg>
